X:1
T:I Love to Think of Jesus
T:I Love to Think of Jesus
T:Adam Geibel
T:Charles Austin Miles, 1919
T:Public Domain Courtesy of the Cyber Hymnal™
T:Public Domain Courtesy of the Cyber Hymnal™
C:Adam Geibel
Z:Public Domain
Z:Courtesy of the Cyber Hymnal™
%%score ( 1 2 ) ( 3 4 )
L:1/8
Q:1/4=100
M:4/4
K:Ab
V:1 treble 
V:2 treble 
V:3 bass 
V:4 bass 
V:1
 E | [CE][CF][CG][CA] [CB][CA][E=Ad][EAc] | F2 c2 [DF] B3 ([DF][DF])[DFB] | %3
w: 1.~I|love to think of Je- sus, who else|could it be, Who could * come|
w: 2.~I|love to think that He has giv- en|me a part In par- * don|
w: 3.~I|love to think of Je- sus when I|am dis- tressed, To think * up-|
w: 4.~I|love to think of Him when tears of|sor- row fall, To know * that|
 [DGc][DGB][C^F=A][DGB] [EGc][DGB][B,DG][B,DE] | F2 [A,C] _F2 [A,C] E3 ([A,C][A,C])[A,CE] | %5
w: * down from Heav’n to save a soul|like me? To think of Him * does|
w: * that He pur- chased with a brok-|en heart; And oft my eyes * are|
w: * on His prom- ise brings a bliss-|ful rest; In sor- row, pain * and|
w: * He has suf- fered and He knows|it all; It gives me strength * to|
 [CE][CF][CG][CA] [CB][CA][E=Ad][EAc] | c2 [EG] B2 [EG] e3 ([GB][GB])[B,EG] | %7
w: * not re- pay the debt I owe,|I’ll do my best my gra- * ti-|
w: * filled with tears as I re- call|What He has done for me, * and|
w: * an- guish He is near I know,|It is no won- der that * I|
w: * bear my bur- den nor com- plain,|I nev- er yet have called * to|
 [=DAB][DAc][FA=d][FAc] [DA][DF][^C=E][DF] | B4 ([DG][DF][DG] !fermata![EGe]3) || %9
w: * tude to show. * * * *||
w: * for us all. I love to think|of Je- * * *|
w: * love Him so. * * * *||
w: * Him in vain. * * * *||
"^Refrain" [Ec] x6 | c4 [Gc][Ac][Gc][Fc] | [Ad]2 [Gd-]2 [Gd]3 [Ed] | d4 [Gd][Bd][Gd][Fd] | %13
w: ||||
w: |sus and His love for~me;|My soul is lost|in won- der that such|
w: ||||
w: ||||
 [Fd]2 [Ec-]2 [Ec]3 [Ec] | [ce][ce][Bd][=Ac] [ce] [Bd]2 [Bd] | [Bd][Bd][Ac][GB] [Bd] [Ac]2 A | %16
w: |||
w: love could~be; I’ve known|the love of mo- ther, Of sis-|ter, friend and bro- ther, Like Je-|
w: |||
w: |||
 [=DA][DA][DG][DA] [Ee] [Ac]2 E | [=DF][Dc] [_DB]>[CA] [CA]3 x |] x7 |] %19
w: |||
w: sus there’s no o- ther, He’s more|than all to me. *||
w: |||
w: |||
V:2
 E | x8 | (DD) [DF] [DF] x7 | x8 | [A,C] [A,C] [A,C] x9 | x8 | [EG] [EG] [GB] x9 | x8 | [DG] x9 || %9
 x7 | EFFG x4 | x8 | EFFG x4 | x8 | x8 | x7 A | x7 E | x8 |] x7 |] %19
V:3
 E, | E,F,G,A, B,A,DC | F,2 C2 B,3 B, x3 | CB,=A,B, CB,G, x | E, x11 | F,2 _F,2 E,3 E, | %6
 E,F,G,A, B,A,DC x4 | C2 B,2 E3 G, | B,C=DC B,F,=E,F, x2 || %9
 ([E,,E,][E,B,][E,A,][E,B,] !fermata![E,B,D]3) | z x7 | A,,2 [E,A,C]2 [E,A,C]2 [E,A,C]2 | %12
 B,,2 ([E,B,D]2 [E,B,D]2) [E,B,D]2 | E,,2 [E,B,D]2 [E,B,D]2 [E,B,D]2 | %14
 A,,2 [E,A,C]2 [E,A,C]2 [E,A,C]2 | F,,2 [F,=A,E]2 B,,2 [F,B,D]2 | E,,2 [E,G,D]2 A,,2 [E,A,C]A, | %17
 [_F,=B,][F,B,][F,B,][F,B,] [E,C] [E,E]2 [C,A,] |] [B,,A,][B,,A,] [E,G,]>[A,,E,] [A,,E,]3 |] %19
V:4
 E, | A,,6 F,2 | B,,8 x3 | E,4- E,4 | x12 | A,,8 | A,,6 F,2 x4 | B,,8 | B,,8 x2 || x7 | x8 | x8 | %12
 x8 | x8 | x8 | x8 | x7 A, | x8 |] x7 |] %19

